svgs/solid/file-signature.svg

<svg xmlns="http://www.w3.org/2000/svg" viewBox="0 0 576 512"><!--! Font Awesome Pro 6.0.0-alpha3 by @fontawesome - https://fontawesome.com License - https://fontawesome.com/license (Commercial License) --><path d="M292.7 342.3C289.7 345.3 288 349.4 288 353.7V416h62.34c4.264 0 8.35-1.703 11.35-4.727l156.9-158l-67.88-67.88L292.7 342.3zM568.5 167.4L536.6 135.5c-9.875-10-26-10-36 0l-27.25 27.25l67.88 67.88l27.25-27.25C578.5 193.4 578.5 177.3 568.5 167.4zM256 0v128h128L256 0zM256 448c-16.07-.2852-30.62-9.359-37.88-23.88c-2.875-5.875-8-6.5-10.12-6.5s-7.25 .625-10 6.125l-7.749 15.38C187.6 444.6 181.1 448 176 448H174.9c-6.5-.5-12-4.75-14-11L144 386.6L133.4 418.5C127.5 436.1 111 448 92.45 448H80C71.13 448 64 440.9 64 432S71.13 416 80 416h12.4c4.875 0 9.102-3.125 10.6-7.625l18.25-54.63C124.5 343.9 133.6 337.3 144 337.3s19.5 6.625 22.75 16.5l13.88 41.63c19.75-16.25 54.13-9.75 66 14.12C248.5 413.2 252.2 415.6 256 415.9V347c0-8.523 3.402-16.7 9.451-22.71L384 206.5V160H256c-17.67 0-32-14.33-32-32L224 0H48C21.49 0 0 21.49 0 48v416C0 490.5 21.49 512 48 512h288c26.51 0 48-21.49 48-48V448H256z"/></svg>

<svg xmlns="http://www.w3.org/2000/svg" viewBox="0 0 576 512"><!-- Font Awesome Pro 6.0.0-alpha2 by @fontawesome - https://fontawesome.com License - https://fontawesome.com/license (Commercial License) --><path d="M292.727 342.305C289.701 345.312 288 349.398 288 353.66V416H350.34C354.604 416 358.689 414.297 361.693 411.273L518.625 253.25L450.75 185.375L292.727 342.305ZM568.5 167.375L536.625 135.5C526.75 125.5 510.625 125.5 500.625 135.5L473.375 162.75L541.25 230.625L568.5 203.375C578.5 193.375 578.5 177.25 568.5 167.375ZM256 0V128H384L256 0ZM256 447.898C239.932 447.613 225.385 438.641 218.125 424.125C215.25 418.25 210.125 417.625 208 417.625S200.75 418.25 197.999 423.75L190.25 439.125C187.625 444.625 181.999 448 176 448H174.875C168.375 447.5 162.875 443.25 160.875 437L144 386.625L133.375 418.5C127.502 436.117 111.016 448 92.445 448H80C71.125 448 64 440.875 64 432S71.125 416 80 416H92.375C97.25 416 101.5 412.875 103 408.375L121.25 353.75C124.5 343.875 133.625 337.25 144 337.25S163.5 343.875 166.75 353.75L180.625 395.375C200.375 379.125 234.75 385.625 246.625 409.5C248.496 413.242 252.16 415.477 256 415.773V347C256 338.477 259.402 330.301 265.451 324.293L384 206.562V160H256C238.326 160 224 145.672 224 128V0H48C21.49 0 0 21.492 0 48V464C0 490.508 21.49 512 48 512H336C362.51 512 384 490.508 384 464V448H256V447.898Z"/></svg>
